X: 5792
T: Caitriona's Fancy
R: reel
M: 4/4
K: Bminor
B2BA Bcde|f2fg fedc|B2Bc dcBd|cFFE F2FA|
B2BA Bcde|f2fg fedc|dfBd ce^Ac|1 Bcdc B2BA:|2 Bcdc Bcde||
f2fg fedf|e2ef gfeg|fBBf BBfB|e2ed cde2|
f2fg fedf|e2ed cdec|dfBd ce^Ac|Bcdc Bcde|
f2fg fedf|e2ef gfeg|fBBf BBfB|e2ed cde2|
faae ggdB|BccA BGAF|G2GF EFGA|BdcA B2z2||

